public/build/img/translate.svg

<svg xmlns="http://www.w3.org/2000/svg" xmlns:xlink="http://www.w3.org/1999/xlink" width="200" zoomAndPan="magnify" viewBox="0 0 150 149.999998" height="200" preserveAspectRatio="xMidYMid meet" version="1.0"><defs><clipPath id="395fa3c7c4"><path d="M 0 18.1875 L 120 18.1875 L 120 73 L 0 73 Z M 0 18.1875 " clip-rule="nonzero"/></clipPath><clipPath id="f726716c0a"><path d="M 30 78 L 150 78 L 150 132.1875 L 30 132.1875 Z M 30 78 " clip-rule="nonzero"/></clipPath><clipPath id="ffc2fd8f46"><path d="M 0.03125 17.019531 L 120 17.019531 L 120 72 L 0.03125 72 Z M 0.03125 17.019531 " clip-rule="nonzero"/></clipPath><clipPath id="ec3bf8fb2a"><path d="M 0.03125 71 L 25 71 L 25 110 L 0.03125 110 Z M 0.03125 71 " clip-rule="nonzero"/></clipPath></defs><path fill="#e6e6dd" d="M 92.183594 41.007812 L 90.441406 45.207031 L 93.925781 45.207031 Z M 92.183594 41.007812 " fill-opacity="1" fill-rule="nonzero"/><path fill="#e6e6dd" d="M 48.851562 48.203125 C 50.5 48.203125 51.839844 46.859375 51.839844 45.207031 L 51.839844 39.207031 C 51.839844 37.554688 50.5 36.210938 48.851562 36.210938 C 47.203125 36.210938 45.863281 37.554688 45.863281 39.207031 L 45.863281 45.207031 C 45.863281 46.859375 47.203125 48.203125 48.851562 48.203125 Z M 48.851562 48.203125 " fill-opacity="1" fill-rule="nonzero"/><g clip-path="url(#395fa3c7c4)"><path fill="#e6e6dd" d="M 9.253906 66.191406 L 90 66.191406 C 90 66.191406 95.320312 71.351562 95.351562 71.351562 C 96.488281 72.460938 98.339844 72.460938 99.476562 71.351562 L 104.824219 66.191406 L 110.859375 66.191406 C 115.792969 66.191406 119.824219 62.144531 119.824219 57.199219 L 119.824219 27.214844 C 119.824219 22.269531 115.792969 18.222656 110.859375 18.222656 L 9.253906 18.222656 C 4.324219 18.222656 0.289062 22.269531 0.289062 27.214844 L 0.289062 57.199219 C 0.289062 62.144531 4.324219 66.191406 9.253906 66.191406 Z M 81.953125 50.046875 L 89.425781 32.058594 C 89.890625 30.941406 90.976562 30.214844 92.183594 30.214844 C 93.386719 30.214844 94.476562 30.941406 94.941406 32.058594 L 102.410156 50.046875 C 103.046875 51.578125 102.328125 53.332031 100.804688 53.96875 C 99.289062 54.601562 97.53125 53.878906 96.894531 52.355469 L 96.417969 51.203125 L 87.949219 51.203125 L 87.46875 52.355469 C 86.832031 53.886719 85.085938 54.609375 83.5625 53.96875 C 82.039062 53.332031 81.316406 51.578125 81.953125 50.046875 Z M 62.300781 33.210938 C 62.300781 31.554688 63.636719 30.214844 65.289062 30.214844 C 66.9375 30.214844 68.277344 31.554688 68.277344 33.210938 L 68.277344 48.203125 L 74.253906 48.203125 C 75.902344 48.203125 77.242188 49.546875 77.242188 51.203125 C 77.242188 52.855469 75.902344 54.199219 74.253906 54.199219 L 65.289062 54.199219 C 63.636719 54.199219 62.300781 52.855469 62.300781 51.203125 Z M 39.886719 39.207031 C 39.886719 34.25 43.90625 30.214844 48.851562 30.214844 C 53.796875 30.214844 57.816406 34.25 57.816406 39.207031 L 57.816406 45.207031 C 57.816406 50.164062 53.796875 54.199219 48.851562 54.199219 C 43.90625 54.199219 39.886719 50.164062 39.886719 45.207031 Z M 17.472656 33.210938 C 17.472656 31.554688 18.8125 30.214844 20.460938 30.214844 C 22.113281 30.214844 23.449219 31.554688 23.449219 33.210938 L 23.449219 39.207031 L 29.425781 39.207031 L 29.425781 33.210938 C 29.425781 31.554688 30.765625 30.214844 32.414062 30.214844 C 34.066406 30.214844 35.402344 31.554688 35.402344 33.210938 L 35.402344 51.203125 C 35.402344 52.855469 34.066406 54.199219 32.414062 54.199219 C 30.765625 54.199219 29.425781 52.855469 29.425781 51.203125 L 29.425781 45.207031 L 23.449219 45.207031 L 23.449219 51.203125 C 23.449219 52.855469 22.113281 54.199219 20.460938 54.199219 C 18.8125 54.199219 17.472656 52.855469 17.472656 51.203125 Z M 17.472656 33.210938 " fill-opacity="1" fill-rule="nonzero"/></g><g clip-path="url(#f726716c0a)"><path fill="#e6e6dd" d="M 140.746094 84.183594 L 60.015625 84.183594 L 54.65625 79.023438 C 53.5 77.90625 51.671875 77.90625 50.519531 79.023438 L 45.160156 84.183594 L 39.140625 84.183594 C 34.195312 84.183594 30.175781 88.21875 30.175781 93.175781 L 30.175781 123.160156 C 30.175781 128.121094 34.195312 132.152344 39.140625 132.152344 L 140.746094 132.152344 C 145.6875 132.152344 149.710938 128.121094 149.710938 123.160156 L 149.710938 93.175781 C 149.710938 88.21875 145.6875 84.183594 140.746094 84.183594 Z M 59.3125 117.164062 C 59.3125 118.820312 57.972656 120.160156 56.324219 120.160156 C 54.671875 120.160156 53.335938 118.820312 53.335938 117.164062 L 53.335938 111.167969 L 47.359375 111.167969 L 47.359375 117.164062 C 47.359375 118.820312 46.019531 120.160156 44.367188 120.160156 C 42.71875 120.160156 41.378906 118.820312 41.378906 117.164062 L 41.378906 99.171875 C 41.378906 97.519531 42.71875 96.175781 44.367188 96.175781 C 46.019531 96.175781 47.359375 97.519531 47.359375 99.171875 L 47.359375 105.167969 L 53.335938 105.167969 L 53.335938 99.171875 C 53.335938 97.519531 54.671875 96.175781 56.324219 96.175781 C 57.972656 96.175781 59.3125 97.519531 59.3125 99.171875 Z M 75.746094 105.167969 C 77.398438 105.167969 78.734375 106.511719 78.734375 108.167969 C 78.734375 109.824219 77.398438 111.167969 75.746094 111.167969 L 69.769531 111.167969 L 69.769531 114.164062 L 75.746094 114.164062 C 77.398438 114.164062 78.734375 115.507812 78.734375 117.164062 C 78.734375 118.820312 77.398438 120.160156 75.746094 120.160156 L 66.78125 120.160156 C 65.132812 120.160156 63.792969 118.820312 63.792969 117.164062 L 63.792969 99.171875 C 63.792969 97.519531 65.132812 96.175781 66.78125 96.175781 L 75.746094 96.175781 C 77.398438 96.175781 78.734375 97.519531 78.734375 99.171875 C 78.734375 100.828125 77.398438 102.171875 75.746094 102.171875 L 69.769531 102.171875 L 69.769531 105.167969 Z M 95.171875 120.160156 L 86.207031 120.160156 C 84.554688 120.160156 83.21875 118.820312 83.21875 117.164062 L 83.21875 99.171875 C 83.21875 97.519531 84.554688 96.175781 86.207031 96.175781 C 87.859375 96.175781 89.195312 97.519531 89.195312 99.171875 L 89.195312 114.164062 L 95.171875 114.164062 C 96.824219 114.164062 98.160156 115.507812 98.160156 117.164062 C 98.160156 118.820312 96.824219 120.160156 95.171875 120.160156 Z M 114.597656 120.160156 L 105.632812 120.160156 C 103.980469 120.160156 102.640625 118.820312 102.640625 117.164062 L 102.640625 99.171875 C 102.640625 97.519531 103.980469 96.175781 105.632812 96.175781 C 107.28125 96.175781 108.621094 97.519531 108.621094 99.171875 L 108.621094 114.164062 L 114.597656 114.164062 C 116.246094 114.164062 117.585938 115.507812 117.585938 117.164062 C 117.585938 118.820312 116.246094 120.160156 114.597656 120.160156 Z M 138.503906 111.167969 C 138.503906 116.125 134.480469 120.160156 129.539062 120.160156 C 124.59375 120.160156 120.574219 116.125 120.574219 111.167969 L 120.574219 105.167969 C 120.574219 100.210938 124.59375 96.175781 129.539062 96.175781 C 134.480469 96.175781 138.503906 100.210938 138.503906 105.167969 Z M 138.503906 111.167969 " fill-opacity="1" fill-rule="nonzero"/></g><path fill="#e6e6dd" d="M 129.539062 102.171875 C 127.890625 102.171875 126.550781 103.515625 126.550781 105.167969 L 126.550781 111.167969 C 126.550781 112.820312 127.890625 114.164062 129.539062 114.164062 C 131.1875 114.164062 132.527344 112.820312 132.527344 111.167969 L 132.527344 105.167969 C 132.527344 103.515625 131.1875 102.171875 129.539062 102.171875 Z M 129.539062 102.171875 " fill-opacity="1" fill-rule="nonzero"/><path fill="#e6e6dd" d="M 128.789062 45.207031 L 131.777344 45.207031 C 135.074219 45.207031 137.757812 47.894531 137.757812 51.203125 L 137.757812 67.949219 L 136.878906 67.070312 C 135.714844 65.898438 133.820312 65.898438 132.65625 67.070312 C 131.488281 68.242188 131.488281 70.140625 132.65625 71.3125 C 132.65625 71.3125 138.632812 77.308594 138.632812 77.308594 C 139.792969 78.472656 141.695312 78.472656 142.855469 77.308594 L 148.832031 71.3125 C 150 70.140625 150 68.242188 148.832031 67.070312 C 147.667969 65.898438 145.777344 65.898438 144.609375 67.070312 L 143.734375 67.949219 L 143.734375 51.203125 C 143.734375 44.589844 138.371094 39.207031 131.777344 39.207031 L 128.789062 39.207031 C 127.140625 39.207031 125.800781 40.550781 125.800781 42.207031 C 125.800781 43.863281 127.140625 45.207031 128.789062 45.207031 Z M 128.789062 45.207031 " fill-opacity="1" fill-rule="nonzero"/><path fill="#e6e6dd" d="M 21.210938 105.167969 L 18.222656 105.167969 C 14.925781 105.167969 12.242188 102.480469 12.242188 99.171875 L 12.242188 82.425781 L 13.121094 83.304688 C 14.285156 84.476562 16.179688 84.476562 17.34375 83.304688 C 18.511719 82.132812 18.511719 80.234375 17.34375 79.0625 C 17.34375 79.0625 11.367188 73.066406 11.367188 73.066406 C 10.207031 71.902344 8.304688 71.902344 7.144531 73.066406 L 1.167969 79.0625 C 0 80.234375 0 82.132812 1.167969 83.304688 C 2.332031 84.476562 4.222656 84.476562 5.390625 83.304688 L 6.265625 82.425781 L 6.265625 99.171875 C 6.265625 105.785156 11.628906 111.167969 18.222656 111.167969 L 21.210938 111.167969 C 22.859375 111.167969 24.199219 109.824219 24.199219 108.167969 C 24.199219 106.511719 22.859375 105.167969 21.210938 105.167969 Z M 21.210938 105.167969 " fill-opacity="1" fill-rule="nonzero"/><path fill="#e6e6dd" d="M 92.214844 39.839844 L 90.472656 44.035156 L 93.957031 44.035156 Z M 92.214844 39.839844 " fill-opacity="1" fill-rule="nonzero"/><path fill="#e6e6dd" d="M 48.882812 47.035156 C 50.53125 47.035156 51.871094 45.6875 51.871094 44.035156 L 51.871094 38.039062 C 51.871094 36.386719 50.53125 35.042969 48.882812 35.042969 C 47.238281 35.042969 45.894531 36.386719 45.894531 38.039062 L 45.894531 44.035156 C 45.894531 45.6875 47.238281 47.035156 48.882812 47.035156 Z M 48.882812 47.035156 " fill-opacity="1" fill-rule="nonzero"/><g clip-path="url(#ffc2fd8f46)"><path fill="#e6e6dd" d="M 9.289062 65.023438 L 90.035156 65.023438 C 90.035156 65.023438 95.351562 70.179688 95.382812 70.179688 C 96.519531 71.289062 98.371094 71.289062 99.507812 70.179688 L 104.855469 65.023438 L 110.894531 65.023438 C 115.824219 65.023438 119.859375 60.976562 119.859375 56.027344 L 119.859375 26.046875 C 119.859375 21.097656 115.824219 17.050781 110.894531 17.050781 L 9.289062 17.050781 C 4.355469 17.050781 0.324219 21.097656 0.324219 26.046875 L 0.324219 56.027344 C 0.324219 60.976562 4.355469 65.023438 9.289062 65.023438 Z M 81.988281 48.878906 L 89.457031 30.890625 C 89.921875 29.773438 91.011719 29.042969 92.214844 29.042969 C 93.421875 29.042969 94.507812 29.773438 94.972656 30.890625 L 102.445312 48.878906 C 103.082031 50.40625 102.359375 52.164062 100.835938 52.800781 C 99.320312 53.433594 97.5625 52.710938 96.929688 51.1875 L 96.449219 50.03125 L 87.980469 50.03125 L 87.503906 51.1875 C 86.867188 52.714844 85.117188 53.4375 83.59375 52.800781 C 82.070312 52.164062 81.351562 50.40625 81.988281 48.878906 Z M 62.332031 32.042969 C 62.332031 30.386719 63.667969 29.042969 65.320312 29.042969 C 66.96875 29.042969 68.308594 30.386719 68.308594 32.042969 L 68.308594 47.035156 L 74.285156 47.035156 C 75.9375 47.035156 77.273438 48.375 77.273438 50.03125 C 77.273438 51.6875 75.9375 53.03125 74.285156 53.03125 L 65.320312 53.03125 C 63.667969 53.03125 62.332031 51.6875 62.332031 50.03125 Z M 39.917969 38.039062 C 39.917969 33.078125 43.941406 29.042969 48.882812 29.042969 C 53.828125 29.042969 57.847656 33.078125 57.847656 38.039062 L 57.847656 44.035156 C 57.847656 48.996094 53.828125 53.03125 48.882812 53.03125 C 43.941406 53.03125 39.917969 48.996094 39.917969 44.035156 Z M 17.507812 32.042969 C 17.507812 30.386719 18.84375 29.042969 20.496094 29.042969 C 22.144531 29.042969 23.484375 30.386719 23.484375 32.042969 L 23.484375 38.039062 L 29.460938 38.039062 L 29.460938 32.042969 C 29.460938 30.386719 30.796875 29.042969 32.449219 29.042969 C 34.097656 29.042969 35.4375 30.386719 35.4375 32.042969 L 35.4375 50.03125 C 35.4375 51.6875 34.097656 53.03125 32.449219 53.03125 C 30.796875 53.03125 29.460938 51.6875 29.460938 50.03125 L 29.460938 44.035156 L 23.484375 44.035156 L 23.484375 50.03125 C 23.484375 51.6875 22.144531 53.03125 20.496094 53.03125 C 18.84375 53.03125 17.507812 51.6875 17.507812 50.03125 Z M 17.507812 32.042969 " fill-opacity="1" fill-rule="nonzero"/></g><path fill="#e6e6dd" d="M 140.777344 83.011719 L 60.046875 83.011719 L 54.6875 77.851562 C 53.53125 76.738281 51.707031 76.738281 50.550781 77.851562 L 45.191406 83.011719 L 39.171875 83.011719 C 34.226562 83.011719 30.207031 87.046875 30.207031 92.007812 L 30.207031 121.992188 C 30.207031 126.949219 34.226562 130.984375 39.171875 130.984375 L 140.777344 130.984375 C 145.71875 130.984375 149.742188 126.949219 149.742188 121.992188 L 149.742188 92.007812 C 149.742188 87.046875 145.71875 83.011719 140.777344 83.011719 Z M 59.34375 115.992188 C 59.34375 117.648438 58.003906 118.992188 56.355469 118.992188 C 54.703125 118.992188 53.367188 117.648438 53.367188 115.992188 L 53.367188 109.996094 L 47.390625 109.996094 L 47.390625 115.992188 C 47.390625 117.648438 46.050781 118.992188 44.402344 118.992188 C 42.75 118.992188 41.414062 117.648438 41.414062 115.992188 L 41.414062 98.003906 C 41.414062 96.347656 42.75 95.007812 44.402344 95.007812 C 46.050781 95.007812 47.390625 96.347656 47.390625 98.003906 L 47.390625 104 L 53.367188 104 L 53.367188 98.003906 C 53.367188 96.347656 54.703125 95.007812 56.355469 95.007812 C 58.003906 95.007812 59.34375 96.347656 59.34375 98.003906 Z M 75.78125 104 C 77.429688 104 78.769531 105.34375 78.769531 107 C 78.769531 108.65625 77.429688 109.996094 75.78125 109.996094 L 69.804688 109.996094 L 69.804688 112.996094 L 75.78125 112.996094 C 77.429688 112.996094 78.769531 114.339844 78.769531 115.992188 C 78.769531 117.648438 77.429688 118.992188 75.78125 118.992188 L 66.8125 118.992188 C 65.164062 118.992188 63.824219 117.648438 63.824219 115.992188 L 63.824219 98.003906 C 63.824219 96.347656 65.164062 95.007812 66.8125 95.007812 L 75.78125 95.007812 C 77.429688 95.007812 78.769531 96.347656 78.769531 98.003906 C 78.769531 99.660156 77.429688 101.003906 75.78125 101.003906 L 69.804688 101.003906 L 69.804688 104 Z M 95.203125 118.992188 L 86.238281 118.992188 C 84.585938 118.992188 83.25 117.648438 83.25 115.992188 L 83.25 98.003906 C 83.25 96.347656 84.585938 95.007812 86.238281 95.007812 C 87.890625 95.007812 89.226562 96.347656 89.226562 98.003906 L 89.226562 112.996094 L 95.203125 112.996094 C 96.855469 112.996094 98.191406 114.339844 98.191406 115.992188 C 98.191406 117.648438 96.855469 118.992188 95.203125 118.992188 Z M 114.628906 118.992188 L 105.664062 118.992188 C 104.011719 118.992188 102.675781 117.648438 102.675781 115.992188 L 102.675781 98.003906 C 102.675781 96.347656 104.011719 95.007812 105.664062 95.007812 C 107.316406 95.007812 108.652344 96.347656 108.652344 98.003906 L 108.652344 112.996094 L 114.628906 112.996094 C 116.28125 112.996094 117.617188 114.339844 117.617188 115.992188 C 117.617188 117.648438 116.28125 118.992188 114.628906 118.992188 Z M 138.535156 109.996094 C 138.535156 114.957031 134.515625 118.992188 129.570312 118.992188 C 124.625 118.992188 120.605469 114.957031 120.605469 109.996094 L 120.605469 104 C 120.605469 99.039062 124.625 95.007812 129.570312 95.007812 C 134.515625 95.007812 138.535156 99.039062 138.535156 104 Z M 138.535156 109.996094 " fill-opacity="1" fill-rule="nonzero"/><path fill="#e6e6dd" d="M 129.570312 101.003906 C 127.921875 101.003906 126.582031 102.347656 126.582031 104 L 126.582031 109.996094 C 126.582031 111.648438 127.921875 112.996094 129.570312 112.996094 C 131.21875 112.996094 132.558594 111.648438 132.558594 109.996094 L 132.558594 104 C 132.558594 102.347656 131.21875 101.003906 129.570312 101.003906 Z M 129.570312 101.003906 " fill-opacity="1" fill-rule="nonzero"/><path fill="#e6e6dd" d="M 128.824219 44.035156 L 131.8125 44.035156 C 135.105469 44.035156 137.789062 46.726562 137.789062 50.03125 L 137.789062 66.78125 L 136.914062 65.902344 C 135.746094 64.730469 133.855469 64.730469 132.6875 65.902344 C 131.519531 67.074219 131.519531 68.96875 132.6875 70.140625 C 132.6875 70.140625 138.664062 76.136719 138.664062 76.136719 C 139.824219 77.304688 141.726562 77.304688 142.890625 76.136719 L 148.867188 70.140625 C 150.035156 68.96875 150.035156 67.074219 148.867188 65.902344 C 147.699219 64.730469 145.808594 64.730469 144.640625 65.902344 L 143.765625 66.78125 L 143.765625 50.03125 C 143.765625 43.417969 138.402344 38.039062 131.8125 38.039062 L 128.824219 38.039062 C 127.171875 38.039062 125.835938 39.382812 125.835938 41.039062 C 125.835938 42.695312 127.171875 44.035156 128.824219 44.035156 Z M 128.824219 44.035156 " fill-opacity="1" fill-rule="nonzero"/><g clip-path="url(#ec3bf8fb2a)"><path fill="#e6e6dd" d="M 21.242188 104 L 18.253906 104 C 14.957031 104 12.277344 101.3125 12.277344 98.003906 L 12.277344 81.257812 L 13.152344 82.136719 C 14.320312 83.304688 16.210938 83.304688 17.378906 82.136719 C 18.546875 80.964844 18.546875 79.066406 17.378906 77.894531 C 17.378906 77.894531 11.402344 71.898438 11.402344 71.898438 C 10.238281 70.734375 8.335938 70.734375 7.175781 71.898438 L 1.199219 77.894531 C 0.03125 79.066406 0.03125 80.964844 1.199219 82.136719 C 2.367188 83.304688 4.257812 83.304688 5.425781 82.136719 L 6.300781 81.257812 L 6.300781 98.003906 C 6.300781 104.617188 11.660156 109.996094 18.253906 109.996094 L 21.242188 109.996094 C 22.894531 109.996094 24.230469 108.65625 24.230469 107 C 24.230469 105.34375 22.894531 104 21.242188 104 Z M 21.242188 104 " fill-opacity="1" fill-rule="nonzero"/></g></svg>

<svg xmlns="http://www.w3.org/2000/svg" width="200" viewBox="0 0 150 150" height="200" version="1.0"><defs><clipPath id="a"><path d="M0 18.188h120V73H0zm0 0"/></clipPath><clipPath id="b"><path d="M30 78h120v54.188H30zm0 0"/></clipPath><clipPath id="c"><path d="M.031 17.02H120V72H.031zm0 0"/></clipPath><clipPath id="d"><path d="M.031 71H25v39H.031zm0 0"/></clipPath></defs><path fill="#e6e6dd" d="M92.184 41.008l-1.743 4.199h3.485zm-43.332 7.195a2.995 2.995 0 002.988-2.996v-6a2.995 2.995 0 00-2.988-2.996 2.995 2.995 0 00-2.989 2.996v6a2.995 2.995 0 002.989 2.996zm0 0"/><g clip-path="url(#a)"><path fill="#e6e6dd" d="M9.254 66.191H90s5.32 5.16 5.352 5.16a2.972 2.972 0 004.125 0l5.347-5.16h6.035c4.934 0 8.965-4.046 8.965-8.992V27.215c0-4.945-4.031-8.992-8.965-8.992H9.254c-4.93 0-8.965 4.047-8.965 8.992v29.984c0 4.946 4.035 8.992 8.965 8.992zm72.7-16.144l7.472-17.988a2.986 2.986 0 012.758-1.844 2.99 2.99 0 012.757 1.844l7.47 17.988a2.999 2.999 0 01-1.606 3.922 2.998 2.998 0 01-3.91-1.614l-.477-1.152h-8.469l-.48 1.152a2.978 2.978 0 01-3.906 1.614 3 3 0 01-1.61-3.922zM62.3 33.21a2.99 2.99 0 012.988-2.996 2.992 2.992 0 012.988 2.996v14.992h5.977a2.996 2.996 0 012.988 3 2.995 2.995 0 01-2.988 2.996h-8.965a2.992 2.992 0 01-2.988-2.996zm-22.414 5.996c0-4.957 4.02-8.992 8.965-8.992s8.964 4.035 8.964 8.992v6c0 4.957-4.02 8.992-8.964 8.992-4.946 0-8.965-4.035-8.965-8.992zM17.472 33.21a2.992 2.992 0 012.988-2.996 2.99 2.99 0 012.988 2.996v5.996h5.977V33.21a2.992 2.992 0 012.988-2.996 2.99 2.99 0 012.988 2.996v17.992a2.992 2.992 0 01-2.988 2.996 2.995 2.995 0 01-2.988-2.996v-5.996h-5.977v5.996a2.992 2.992 0 01-2.988 2.996 2.995 2.995 0 01-2.988-2.996zm0 0"/></g><g clip-path="url(#b)"><path fill="#e6e6dd" d="M140.746 84.184h-80.73l-5.36-5.16a2.972 2.972 0 00-4.136 0l-5.36 5.16h-6.02c-4.945 0-8.964 4.035-8.964 8.992v29.984c0 4.961 4.02 8.992 8.965 8.992h101.605c4.941 0 8.965-4.03 8.965-8.992V93.176c0-4.957-4.024-8.992-8.965-8.992zm-81.434 32.98a2.992 2.992 0 01-2.988 2.996 2.99 2.99 0 01-2.988-2.996v-5.996h-5.977v5.996a2.993 2.993 0 01-2.992 2.996 2.992 2.992 0 01-2.988-2.996V99.172a2.995 2.995 0 012.988-2.996 2.996 2.996 0 012.992 2.996v5.996h5.977v-5.996a2.992 2.992 0 012.988-2.996 2.995 2.995 0 012.989 2.996zm16.434-11.996a2.993 2.993 0 012.988 3c0 1.656-1.336 3-2.988 3H69.77v2.996h5.976a2.993 2.993 0 012.988 3 2.99 2.99 0 01-2.988 2.996h-8.965a2.992 2.992 0 01-2.988-2.996V99.172a2.995 2.995 0 012.988-2.996h8.965a2.992 2.992 0 012.988 2.996c0 1.656-1.336 3-2.988 3H69.77v2.996zm19.426 14.992h-8.965a2.99 2.99 0 01-2.988-2.996V99.172a2.992 2.992 0 012.988-2.996 2.992 2.992 0 012.988 2.996v14.992h5.977a2.993 2.993 0 012.988 3 2.99 2.99 0 01-2.988 2.996zm19.426 0h-8.965a2.993 2.993 0 01-2.992-2.996V99.172a2.996 2.996 0 012.992-2.996 2.995 2.995 0 012.988 2.996v14.992h5.977a2.996 2.996 0 012.988 3 2.992 2.992 0 01-2.988 2.996zm23.906-8.992c0 4.957-4.024 8.992-8.965 8.992-4.945 0-8.965-4.035-8.965-8.992v-6c0-4.957 4.02-8.992 8.965-8.992 4.941 0 8.965 4.035 8.965 8.992zm0 0"/></g><path fill="#e6e6dd" d="M129.54 102.172a2.995 2.995 0 00-2.99 2.996v6a2.995 2.995 0 002.99 2.996 2.995 2.995 0 002.987-2.996v-6a2.995 2.995 0 00-2.988-2.996zm-.75-56.965h2.987c3.297 0 5.98 2.688 5.98 5.996V67.95l-.878-.879a2.975 2.975 0 00-4.223 0 3.006 3.006 0 000 4.243l5.977 5.996a2.99 2.99 0 004.222 0l5.977-5.996a3.006 3.006 0 000-4.243 2.975 2.975 0 00-4.223 0l-.875.88V51.202c0-6.613-5.363-11.996-11.957-11.996h-2.988a2.996 2.996 0 00-2.988 3c0 1.656 1.34 3 2.988 3zM21.21 105.168h-2.987c-3.297 0-5.98-2.688-5.98-5.996V82.426l.878.879a2.975 2.975 0 004.223 0 3.006 3.006 0 000-4.243l-5.977-5.996a2.99 2.99 0 00-4.222 0l-5.977 5.996a3.006 3.006 0 000 4.243 2.975 2.975 0 004.223 0l.875-.88v16.747c0 6.613 5.363 11.996 11.957 11.996h2.988a2.996 2.996 0 002.988-3c0-1.656-1.34-3-2.988-3zM92.215 39.84l-1.742 4.195h3.484zm-43.332 7.195a2.998 2.998 0 002.988-3V38.04a2.995 2.995 0 00-2.988-2.996 2.997 2.997 0 00-2.988 2.996v5.996a3 3 0 002.988 3zm0 0"/><g clip-path="url(#c)"><path fill="#e6e6dd" d="M9.29 65.023h80.745s5.317 5.157 5.348 5.157a2.972 2.972 0 004.125 0l5.347-5.157h6.04c4.93 0 8.964-4.046 8.964-8.996v-29.98c0-4.95-4.035-8.996-8.964-8.996H9.289c-4.934 0-8.965 4.047-8.965 8.996v29.98c0 4.95 4.031 8.996 8.965 8.996zM81.987 48.88l7.469-17.988a2.994 2.994 0 012.758-1.848 2.99 2.99 0 012.758 1.848l7.472 17.988a3.002 3.002 0 01-1.61 3.922 2.992 2.992 0 01-3.905-1.614l-.48-1.156h-8.47l-.476 1.157a2.989 2.989 0 01-3.91 1.613 3 3 0 01-1.606-3.922zM62.332 32.043c0-1.656 1.336-3 2.988-3a2.996 2.996 0 012.989 3v14.992h5.976a2.99 2.99 0 012.988 2.996c0 1.657-1.335 3-2.988 3H65.32a2.993 2.993 0 01-2.988-3zm-22.414 5.996c0-4.96 4.023-8.996 8.965-8.996 4.945 0 8.965 4.035 8.965 8.996v5.996c0 4.961-4.02 8.996-8.965 8.996-4.942 0-8.965-4.035-8.965-8.996zm-22.41-5.996c0-1.656 1.336-3 2.988-3a2.996 2.996 0 012.988 3v5.996h5.977v-5.996c0-1.656 1.336-3 2.988-3a2.996 2.996 0 012.989 3v17.988c0 1.657-1.34 3-2.989 3a2.993 2.993 0 01-2.988-3v-5.996h-5.977v5.996c0 1.657-1.34 3-2.988 3a2.993 2.993 0 01-2.988-3zm0 0"/></g><path fill="#e6e6dd" d="M140.777 83.012h-80.73l-5.36-5.16a2.98 2.98 0 00-4.136 0l-5.36 5.16h-6.02c-4.944 0-8.964 4.035-8.964 8.996v29.984c0 4.957 4.02 8.992 8.965 8.992h101.605c4.942 0 8.965-4.035 8.965-8.992V92.008c0-4.961-4.023-8.996-8.965-8.996zm-81.433 32.98c0 1.656-1.34 3-2.989 3a2.993 2.993 0 01-2.988-3v-5.996h-5.976v5.996c0 1.656-1.34 3-2.989 3a2.993 2.993 0 01-2.988-3V98.004a2.99 2.99 0 012.988-2.996 2.992 2.992 0 012.989 2.996V104h5.976v-5.996a2.99 2.99 0 012.988-2.996 2.992 2.992 0 012.989 2.996zM75.78 104a2.996 2.996 0 012.989 3 2.992 2.992 0 01-2.989 2.996h-5.976v3h5.976a2.995 2.995 0 012.989 2.996c0 1.656-1.34 3-2.989 3h-8.969a2.996 2.996 0 01-2.988-3V98.004a2.992 2.992 0 012.989-2.996h8.968a2.992 2.992 0 012.989 2.996c0 1.656-1.34 3-2.989 3h-5.976V104zm19.422 14.992h-8.965a2.993 2.993 0 01-2.988-3V98.004a2.99 2.99 0 012.988-2.996 2.99 2.99 0 012.989 2.996v14.992h5.976a2.992 2.992 0 012.988 2.996c0 1.656-1.336 3-2.988 3zm19.426 0h-8.965a2.993 2.993 0 01-2.988-3V98.004a2.99 2.99 0 012.988-2.996 2.99 2.99 0 012.988 2.996v14.992h5.977a2.992 2.992 0 012.988 2.996c0 1.656-1.336 3-2.988 3zm23.906-8.996c0 4.961-4.02 8.996-8.965 8.996s-8.965-4.035-8.965-8.996V104c0-4.96 4.02-8.992 8.965-8.992 4.946 0 8.965 4.031 8.965 8.992zm0 0"/><path fill="#e6e6dd" d="M129.57 101.004a2.995 2.995 0 00-2.988 2.996v5.996c0 1.652 1.34 3 2.988 3a2.998 2.998 0 002.989-3V104a2.995 2.995 0 00-2.989-2.996zm-.746-56.969h2.988c3.293 0 5.977 2.692 5.977 5.996v16.75l-.875-.879a2.98 2.98 0 00-4.226 0 3.001 3.001 0 000 4.239l5.976 5.996a2.987 2.987 0 004.227 0l5.976-5.996a3.001 3.001 0 000-4.239 2.98 2.98 0 00-4.226 0l-.875.88v-16.75c0-6.614-5.364-11.993-11.953-11.993h-2.989a2.993 2.993 0 00-2.988 3 2.99 2.99 0 002.988 2.996zm0 0"/><g clip-path="url(#d)"><path fill="#e6e6dd" d="M21.242 104h-2.988c-3.297 0-5.977-2.688-5.977-5.996V81.258l.875.879a2.987 2.987 0 004.227 0 3.006 3.006 0 000-4.242l-5.977-5.997a2.994 2.994 0 00-4.226 0l-5.977 5.997a3.006 3.006 0 000 4.242 2.987 2.987 0 004.227 0l.875-.88v16.747c0 6.613 5.36 11.992 11.953 11.992h2.988A2.99 2.99 0 0024.23 107c0-1.656-1.335-3-2.988-3zm0 0"/></g></svg>
